!!!OTL: 242. Lied der Nacht.
!!!COM: J. Fr. Reichardt
!!!ODT: 1802
!!!ARE: Europa, Mitteleuropa, Deutschland
!!!SCT: B0242
!!!TXL: @@DE
!!!YEM: Copyright 1995, estate of Helmut Schaffrath.
**kern	**text
*ICvox	*
*Ivox	*
*M3/4	*
*k[b-e-a-]	*
*E-:	*
!LO:TX:a:t=Langſam u. ſchauerlich leiſe; die 2. Str. ſtärker.	!
{8A-	Jm
=1	=1
8.e-	Winds-
16e-	-ge-
4.e-	-räuſch,
8B-	in
=2	=2
8.f	ſtil-
16f	-ler
4.f}	Nacht
{8f	geht
=3	=3
8g	dort
8e-	ein
4c	Wan-
4d	-ders-
=4	=4
2e-	-mann.
8r}	.
{8g	Er
=5	=5
8.g	ſeufʒt
16f	und
4.f	weint
8f	und
=6	=6
8.g	ſchleicht
16f	ſo
4.f}	ſacht
{8f	und
=7	=7
8g	ruft
8e-	die
4c	Ster-
4f	-ne
=8	=8
2B-	an:
8r}	.
{8b-	Mein
=9	=9
12b-/L	Bu-
12a-J	.
12f	-ſen
4.f	pocht,
8b-	mein
=10	=10
12ccL	Herʒ
12b-J	.
12g	iſt
4g	ſchwer;
8r}	.
{8ee-	in
=11	=11
4.ee-	ſtil-
16ddL	-ler
16ccJ	.
16ccL	Ein-
16b-J	.
16b-L	-ſam-
16anJ	.
=12	=12
(8anqq	.
2b-)}	-keit,
{4b-/	mir
=13	=13
16b-L	un-
16a-XJ	.
16gL	-be-
16fJ	.
4.f	-kannt,
8b-	wo-
=14	=14
16ccL	-hin,
16b-J	.
16a-L	wo-
16gJ	.
4.g}	-her,
{8ee-	durch-
=15	=15
4.ee-	-wand'r
16ddL	ich
16ccJ	.
16ccL	Freud
16b-J	.
16b-L	und
16anJ	.
=16	=16
2b-	Leid.
8r}	.
{8b-	Jhr
=17	=17
4.cc	klei-
8cc	-nen,
8cc	gold-
8d	-nen
=18	=18
8fL	Ster-
8e-J	.
4e-	-ne,
8r}	.
{8b-	ihr
=19	=19
4.cc	blei-
8cc	-bet
8cc	mit
8d	ſo
=20	=20
8fL	fer-
8e-J	.
4e-	-ne,
4r}	.
=21	=21
{(8.ee-L	fer-
16ddJ)	.
4dd	-ne,
4r	.
=22	=22
(8.ffL	fer-
16ee-J)	.
4ee-	-ne!
8r}	.
{8ee-	und
=23	=23
4.ee-	ach,
16dd	ich
16cc	ver-
16b-/L	-trau
16a-J	.
16g	euch
16f	ſo
=24	=24
(2e-	ger-
16gqq	.
8fL	.
8e-J)	.
=25	=25
2e-	ne.
8r}	.
==	==
!!!AGN: Tageszeiten - Lied, Nacht
!!!GTL: Tageszeitenlieder
!!!ONB: ESAC (Essen Associative Code) Database: BOEHME
!!!AMT: simple triple
!!!AIN: vox
!!!EED: Helmut Schaffrath
!!!EEV: 1.0
!!@@COMMENT:"Gedicht von Ludwig Tieck. 1796."
!!@@END:
!!Text: L. Tieck
!!!URL-scan: https://archive.org/details/BoehmeVtLieder1895/page/n213/mode/2up
!!!ENC: Anna Maria Matuszewska
!!!EEV: 2024/02/07
*-	*-
